X: 40359
T: Tom Connor's
R: hornpipe
M: 4/4
K: Gmajor
d(BG)(F G)BdB|{Bc} BAFA D(G{AG}FE)|DG{A}GF GBdB|e(cBc) A(gfe)|
(dc){d}cA GB(dB)|(A/B/)c FA DAFA|(fg){a}gf e(cA)F|1 A/B/A GF G(gfe):|2 (A/B/A) (GF) G(ABc)||
|:d(gfg) d(gfg)|d(gfg) f(d^cd)|ea{b}a(g ab)ag|(fga)g f(dBc)|
dc{d}cA GBdB|(A/B/)c FA DAFA|(fg){a}gf e(cA)F|1 (A/B/A) (GF) G(ABc):|2 A/B/A GF [G,G]4||

